X:5073
T:The Heel Of The Hunt
M:4/4
R:Reel
L:1/8
Q:180
C:Aidan Crossey
K:D
|:d2e|f2fa gfed|f2fa gfed|f2fa gfed|cABc d2de|
f2fa gfed|f2fa gfed|f2fa gfed|cABc d2FG||
|:A2AB AFED|AFED AFED|A2AB AFAd|cABc d2FG|
A2AB AFED|AFED AFED|A2AB AFAd|cABc d2de||
